src/assets/images/prototype/main-image/8-evier.svg

<svg width="427" height="440" viewBox="0 0 427 440" fill="none" xmlns="http://www.w3.org/2000/svg">
<path d="M2 6.99999C2 4.23857 4.23858 2 7 2H420C422.761 2 425 4.23858 425 7V433C425 435.761 422.761 438 420 438H6.99999C4.23857 438 2 435.761 2 433V6.99999Z" fill="white" stroke="#D9D9D9" stroke-width="3" stroke-linejoin="round"/>
<rect x="43" y="34" width="307" height="371" rx="70" fill="white" stroke="#D9D9D9" stroke-width="3" stroke-linejoin="round"/>
<rect x="78" y="73" width="262" height="323" rx="70" fill="white" stroke="#D9D9D9" stroke-width="3" stroke-linejoin="round"/>
<circle cx="254" cy="250" r="20" fill="white" stroke="#D9D9D9" stroke-width="3" stroke-linejoin="round"/>
<circle cx="254" cy="250" r="3" fill="white" stroke="#D9D9D9" stroke-width="3" stroke-linejoin="round"/>
<circle cx="254" cy="238" r="3" fill="white" stroke="#D9D9D9" stroke-width="3" stroke-linejoin="round"/>
<circle cx="266" cy="250" r="3" fill="white" stroke="#D9D9D9" stroke-width="3" stroke-linejoin="round"/>
<circle cx="254" cy="262" r="3" fill="white" stroke="#D9D9D9" stroke-width="3" stroke-linejoin="round"/>
<circle cx="242" cy="250" r="3" fill="white" stroke="#D9D9D9" stroke-width="3" stroke-linejoin="round"/>
<path d="M319.5 68.4999C309.5 78.4999 295.167 94.8333 269 122C266.569 124.523 255.259 124.73 249 122C247.129 121.184 246.335 119.768 245.73 118.415C244.674 116.056 243.137 112.945 244.4 110.69C245.595 108.555 247.788 105.946 252 101.5C261 92 349 11.4999 364 8.99992C375.802 7.03288 381.156 21.0265 382.439 28.6236C382.482 28.8773 382.5 29.1292 382.5 29.3865V48.8394C382.5 51.006 380.3 55.4394 371.5 55.8394C363.276 56.2132 359.069 50.5024 357.738 47.0325C357.563 46.5782 357.5 46.0921 357.5 45.6055V39.7848C357.5 39.5954 357.479 39.4067 357.438 39.2218C357.013 37.3095 354.71 36.5369 353.229 37.8194C344.05 45.7696 328.33 59.6692 319.5 68.4999Z" fill="white" stroke="#D9D9D9" stroke-width="3" stroke-linejoin="round"/>
<path d="M354.5 38.3398L366.5 28.3398" stroke="#D9D9D9" stroke-width="3" stroke-linejoin="round"/>
<path d="M269 123V129.5C266.333 131.167 256 134.5 251 132C246 129.5 244.333 127.167 243 123V113C244.667 116.333 249.954 120.475 254.5 123C259 125.5 266 123 269 123Z" fill="white" stroke="#D9D9D9" stroke-width="3" stroke-linejoin="round"/>
</svg>

<svg width="427" height="440" fill="none" xmlns="http://www.w3.org/2000/svg"><path d="M2 7a5 5 0 015-5h413a5 5 0 015 5v426a5 5 0 01-5 5H7a5 5 0 01-5-5V7z" fill="#fff" stroke="#D9D9D9" stroke-width="3" stroke-linejoin="round"/><rect x="43" y="34" width="307" height="371" rx="70" fill="#fff" stroke="#D9D9D9" stroke-width="3" stroke-linejoin="round"/><rect x="78" y="73" width="262" height="323" rx="70" fill="#fff" stroke="#D9D9D9" stroke-width="3" stroke-linejoin="round"/><circle cx="254" cy="250" r="20" fill="#fff" stroke="#D9D9D9" stroke-width="3" stroke-linejoin="round"/><circle cx="254" cy="250" r="3" fill="#fff" stroke="#D9D9D9" stroke-width="3" stroke-linejoin="round"/><circle cx="254" cy="238" r="3" fill="#fff" stroke="#D9D9D9" stroke-width="3" stroke-linejoin="round"/><circle cx="266" cy="250" r="3" fill="#fff" stroke="#D9D9D9" stroke-width="3" stroke-linejoin="round"/><circle cx="254" cy="262" r="3" fill="#fff" stroke="#D9D9D9" stroke-width="3" stroke-linejoin="round"/><circle cx="242" cy="250" r="3" fill="#fff" stroke="#D9D9D9" stroke-width="3" stroke-linejoin="round"/><path d="M319.5 68.5c-10 10-24.333 26.333-50.5 53.5-2.431 2.523-13.741 2.73-20 0-1.871-.816-2.665-2.232-3.27-3.585-1.056-2.359-2.593-5.47-1.33-7.725 1.195-2.135 3.388-4.744 7.6-9.19 9-9.5 97-90 112-92.5 11.802-1.967 17.156 12.026 18.439 19.624.043.253.061.505.061.763v19.452c0 2.167-2.2 6.6-11 7-8.224.374-12.431-5.337-13.762-8.806-.175-.455-.238-.94-.238-1.428v-5.82a2.6 2.6 0 00-.062-.563c-.425-1.913-2.728-2.685-4.209-1.403-9.179 7.95-24.899 21.85-33.729 30.68z" fill="#fff" stroke="#D9D9D9" stroke-width="3" stroke-linejoin="round"/><path d="M354.5 38.34l12-10" stroke="#D9D9D9" stroke-width="3" stroke-linejoin="round"/><path d="M269 123v6.5c-2.667 1.667-13 5-18 2.5s-6.667-4.833-8-9v-10c1.667 3.333 6.954 7.475 11.5 10 4.5 2.5 11.5 0 14.5 0z" fill="#fff" stroke="#D9D9D9" stroke-width="3" stroke-linejoin="round"/></svg>
